src/lib/packages/icons/src/assets/line/file-list-lock.svg

<svg xmlns="http://www.w3.org/2000/svg" width="24" height="24" fill="none"><path fill="currentColor" d="M17.25 12a.75.75 0 0 0 1.5 0V9a.747.747 0 0 0-.22-.53l-6-6a.749.749 0 0 0-.53-.22H6C3.582 2.25 2.25 3.582 2.25 6v12c0 2.418 1.332 3.75 3.75 3.75h7a.75.75 0 0 0 0-1.5H6c-1.577 0-2.25-.673-2.25-2.25V6c0-1.577.673-2.25 2.25-2.25h5.25V6c0 2.418 1.332 3.75 3.75 3.75h2.25V12Zm-4.5-6V4.811l3.439 3.439H15c-1.577 0-2.25-.673-2.25-2.25Zm-5 6a.75.75 0 1 1-1.5 0 .75.75 0 0 1 1.5 0Zm0 4a.75.75 0 1 1-1.5 0 .75.75 0 0 1 1.5 0Zm7-4a.75.75 0 0 1-.75.75H9.5a.75.75 0 0 1 0-1.5H14a.75.75 0 0 1 .75.75ZM11 15.25a.75.75 0 0 1 0 1.5H9.5a.75.75 0 0 1 0-1.5H11Zm9.75 2.167v-.927c0-1.241-1.01-2.25-2.25-2.25a2.253 2.253 0 0 0-2.25 2.25v.927c-.629.278-1 .873-1 1.698v1.75c0 1.156.719 1.875 1.875 1.875h2.75c1.156 0 1.875-.719 1.875-1.875v-1.75c0-.825-.371-1.421-1-1.698ZM18.5 15.74a.75.75 0 0 1 .75.75v.75h-1.5v-.75a.75.75 0 0 1 .75-.75Zm1.75 5.125c0 .336-.038.375-.375.375h-2.75c-.337 0-.375-.039-.375-.375v-1.75c0-.279.037-.35.239-.367l.011.002c.007 0 .013-.004.021-.004.034-.002.061-.006.104-.006h2.75c.044 0 .07.004.104.006.007 0 .013.004.021.004l.011-.002c.202.017.239.088.239.367v1.75Z"/></svg>

<svg width="24" height="24" viewBox="0 0 24 24" fill="none" xmlns="http://www.w3.org/2000/svg">
<path d="M17.25 12C17.25 12.414 17.586 12.75 18 12.75C18.414 12.75 18.75 12.414 18.75 12V9C18.75 8.801 18.671 8.61 18.53 8.47L12.53 2.47C12.389 2.329 12.199 2.25 12 2.25H6C3.582 2.25 2.25 3.582 2.25 6V18C2.25 20.418 3.582 21.75 6 21.75H13C13.414 21.75 13.75 21.414 13.75 21C13.75 20.586 13.414 20.25 13 20.25H6C4.423 20.25 3.75 19.577 3.75 18V6C3.75 4.423 4.423 3.75 6 3.75H11.25V6C11.25 8.418 12.582 9.75 15 9.75H17.25V12ZM12.75 6V4.811L16.189 8.25H15C13.423 8.25 12.75 7.577 12.75 6ZM7.75 12C7.75 12.414 7.414 12.75 7 12.75C6.586 12.75 6.25 12.414 6.25 12C6.25 11.586 6.586 11.25 7 11.25C7.414 11.25 7.75 11.586 7.75 12ZM7.75 16C7.75 16.414 7.414 16.75 7 16.75C6.586 16.75 6.25 16.414 6.25 16C6.25 15.586 6.586 15.25 7 15.25C7.414 15.25 7.75 15.586 7.75 16ZM14.75 12C14.75 12.414 14.414 12.75 14 12.75H9.5C9.086 12.75 8.75 12.414 8.75 12C8.75 11.586 9.086 11.25 9.5 11.25H14C14.414 11.25 14.75 11.586 14.75 12ZM11 15.25C11.414 15.25 11.75 15.586 11.75 16C11.75 16.414 11.414 16.75 11 16.75H9.5C9.086 16.75 8.75 16.414 8.75 16C8.75 15.586 9.086 15.25 9.5 15.25H11ZM20.75 17.417V16.49C20.75 15.249 19.74 14.24 18.5 14.24C17.26 14.24 16.25 15.249 16.25 16.49V17.417C15.621 17.695 15.25 18.29 15.25 19.115V20.865C15.25 22.021 15.969 22.74 17.125 22.74H19.875C21.031 22.74 21.75 22.021 21.75 20.865V19.115C21.75 18.29 21.379 17.694 20.75 17.417ZM18.5 15.74C18.913 15.74 19.25 16.076 19.25 16.49V17.24H17.75V16.49C17.75 16.076 18.087 15.74 18.5 15.74ZM20.25 20.865C20.25 21.201 20.212 21.24 19.875 21.24H17.125C16.788 21.24 16.75 21.201 16.75 20.865V19.115C16.75 18.836 16.787 18.765 16.989 18.748C16.993 18.748 16.996 18.75 17 18.75C17.007 18.75 17.013 18.746 17.021 18.746C17.055 18.744 17.082 18.74 17.125 18.74H19.875C19.919 18.74 19.945 18.744 19.979 18.746C19.986 18.746 19.992 18.75 20 18.75C20.004 18.75 20.007 18.748 20.011 18.748C20.213 18.765 20.25 18.836 20.25 19.115V20.865Z" fill="currentColor"/>
</svg>
